X: 638
T: Ravenscrofts Maggot
M:3/2
L:1/8
C:Ravenscroft
S: 8: MCJLSH3 http://www.cpartington.plus.com/links/Walsh.abc
Z: Pete Stewart 2004
N:unnessecary accidentals as printed. penultimate bar as printed.
B: Walsh "Third Book of the most Celebrated jiggs, Lancashire hornpipes, ..."
K:E
E4G2B2egbg | edcB AGFE^D2B,2 | E4G2B2egbg | egfg Bedfe4 ||
egbg edcB=c2A2 | =ceag fed^cB2G2 | Bdgf edef gabg | gfeg fedfe4 ||
B2E2c2^D2B2E2 | cBAG FGEF^D2B,2 | EGFA GBAB cBAG | FGEFB,2^D2E4 ||
e2E2=F2E2c2E2 | bfge fdeB =c2B2 | e2E2=F2E2=c2F2 | cBcA GEGBe4 ||

%%sep 1 1 500
%%sep 1 1 500
